img/credit.svg

<svg width="156" height="188" viewBox="0 0 156 188" fill="none" xmlns="http://www.w3.org/2000/svg">
<path d="M141.25 83.627C149.396 83.627 156 77.0232 156 68.877C156 60.7308 149.396 54.127 141.25 54.127C133.104 54.127 126.5 60.7308 126.5 68.877C126.5 77.0232 133.104 83.627 141.25 83.627Z" fill="white"/>
<path d="M89.1131 139.544L82.0391 157.419L59.2151 172.336C57.0471 173.568 55.5811 175.895 55.5811 178.566C55.5811 182.524 58.7891 185.733 62.7481 185.733C64.2831 185.733 65.7031 185.246 66.8691 184.423C70.6301 182.052 89.2201 170.339 92.3641 168.543C95.8641 166.543 96.4891 163.418 96.4891 163.418L101.364 147.418C101.364 147.418 101.364 147.418 95.6141 144.793C89.8641 142.168 89.1131 139.544 89.1131 139.544Z" fill="white"/>
<path d="M139.321 141.462C139.321 141.462 138.163 137.628 134.742 136.295C131.321 134.962 116.655 128.545 116.655 128.545L132.071 102.961C132.071 102.961 135.905 93.961 131.738 89.544C127.571 85.127 117.988 79.794 117.988 79.794H110.467L126.266 52.993C129.62 47.307 127.709 39.912 122.024 36.561L72.6331 7.447C66.9471 4.095 59.5541 6.005 56.2021 11.691L9.14406 91.519C5.79306 97.204 7.70206 104.599 13.3881 107.951L62.7781 137.064C68.4641 140.416 75.8591 138.505 79.2101 132.822L102.144 93.919H110.24L95.4901 120.128C95.4901 120.128 90.3561 129.342 95.1561 134.378C99.3651 138.794 107.823 141.294 107.823 141.294L125.073 147.795L130.174 179.086L130.183 179.085C130.732 182.498 133.682 185.108 137.25 185.108C141.208 185.108 144.416 181.899 144.416 177.941C144.416 177.752 144.402 177.566 144.388 177.381L144.416 177.377L139.321 141.462ZM17.9581 100.198C16.5571 99.372 16.0711 97.49 16.8971 96.09L63.9561 16.261C64.7821 14.86 66.6631 14.373 68.0631 15.199L79.5841 21.991L29.4801 106.989L17.9581 100.198ZM71.4561 128.252C70.6301 129.652 68.7491 130.139 67.3491 129.313L37.2331 111.559L87.3401 26.563L117.453 44.316C118.855 45.142 119.34 47.023 118.515 48.423L100.022 79.795H91.2391L71.3231 94.222C70.8811 94.474 70.4701 94.775 70.0931 95.113L70.0621 95.135L70.0641 95.138C68.6191 96.45 67.7061 98.336 67.7061 100.442C67.7061 104.4 70.9141 107.609 74.8731 107.609C76.4211 107.609 77.8511 107.113 79.0221 106.278L79.0241 106.281L79.0951 106.223C79.2771 106.09 79.4511 105.95 79.6191 105.8L89.2791 98.016L71.4561 128.252Z" fill="white"/>
<path d="M49.2189 5.94302L2.16091 85.772C-1.19009 91.457 0.718907 98.852 6.40491 102.204L55.7949 131.317C61.4809 134.669 68.8759 132.758 72.2269 127.075L119.284 47.246C122.638 41.56 120.727 34.165 115.042 30.814L65.6499 1.70002C59.9649 -1.65198 52.5709 0.258023 49.2189 5.94302ZM9.91391 90.343L56.9729 10.514C57.7989 9.11302 59.6799 8.62602 61.0799 9.45202L72.6009 16.244L22.4959 101.242L10.9739 94.451C9.57391 93.625 9.08791 91.743 9.91391 90.343ZM111.531 42.676L64.4719 122.505C63.6459 123.905 61.7649 124.392 60.3649 123.566L30.2489 105.812L80.3549 20.816L110.468 38.569C111.871 39.394 112.355 41.275 111.531 42.676Z" fill="#F0C42E"/>
<path d="M135.25 77.833C143.396 77.833 150 71.2292 150 63.083C150 54.9368 143.396 48.333 135.25 48.333C127.104 48.333 120.5 54.9368 120.5 63.083C120.5 71.2292 127.104 77.833 135.25 77.833Z" fill="#3A3A3A"/>
<path d="M81.875 133.75L74.801 151.625L51.976 166.542C49.808 167.774 48.342 170.101 48.342 172.772C48.342 176.73 51.55 179.939 55.509 179.939C57.044 179.939 58.464 179.452 59.63 178.629C63.391 176.258 81.981 164.545 85.125 162.749C88.625 160.749 89.25 157.624 89.25 157.624L94.125 141.624C94.125 141.624 94.125 141.624 88.375 138.999C82.625 136.374 81.875 133.75 81.875 133.75Z" fill="#3A3A3A"/>
<path d="M132.083 135.668C132.083 135.668 130.925 131.834 127.504 130.501C124.083 129.168 109.417 122.751 109.417 122.751L124.833 97.167C124.833 97.167 128.667 88.167 124.5 83.75C120.333 79.333 110.75 74 110.75 74H84L64.085 88.427C63.643 88.68 63.232 88.98 62.855 89.318L62.824 89.34L62.826 89.343C61.381 90.654 60.468 92.541 60.468 94.646C60.468 98.604 63.676 101.813 67.635 101.813C69.183 101.813 70.613 101.317 71.784 100.482L71.786 100.485L71.857 100.427C72.039 100.294 72.214 100.154 72.382 100.004L87.125 88.123H103L88.25 114.332C88.25 114.332 83.116 123.546 87.916 128.582C92.125 132.998 100.583 135.498 100.583 135.498L117.833 141.999L122.934 173.29L122.943 173.289C123.492 176.702 126.442 179.312 130.01 179.312C133.968 179.312 137.176 176.103 137.176 172.145C137.176 171.956 137.162 171.77 137.148 171.585L137.176 171.581L132.083 135.668Z" fill="#3A3A3A"/>
</svg>

<svg xmlns="http://www.w3.org/2000/svg" width="156" height="188" viewBox="0 0 156 188"><g fill="#FFF"><circle cx="141.25" cy="68.877" r="14.75"/><path d="M89.113 139.544l-7.074 17.875-22.824 14.917a7.16 7.16 0 0 0-3.634 6.23 7.167 7.167 0 0 0 7.167 7.167 7.121 7.121 0 0 0 4.121-1.31c3.761-2.371 22.351-14.084 25.495-15.88 3.5-2 4.125-5.125 4.125-5.125l4.875-16-5.75-2.625c-5.75-2.625-6.501-5.249-6.501-5.249z"/><path d="M139.321 141.462s-1.158-3.834-4.579-5.167-18.087-7.75-18.087-7.75l15.416-25.584s3.834-9-.333-13.417-13.75-9.75-13.75-9.75h-7.521l15.799-26.801c3.354-5.686 1.443-13.081-4.242-16.432L72.633 7.447c-5.686-3.352-13.079-1.442-16.431 4.244L9.144 91.519c-3.351 5.685-1.442 13.08 4.244 16.432l49.39 29.113c5.686 3.352 13.081 1.441 16.432-4.242l22.934-38.903h8.096l-14.75 26.209s-5.134 9.214-.334 14.25c4.209 4.416 12.667 6.916 12.667 6.916l17.25 6.501 5.101 31.291.009-.001c.549 3.413 3.499 6.023 7.067 6.023a7.166 7.166 0 0 0 7.166-7.167c0-.189-.014-.375-.028-.56l.028-.004-5.095-35.915zM17.958 100.198c-1.401-.826-1.887-2.708-1.061-4.108l47.059-79.829c.826-1.401 2.707-1.888 4.107-1.062l11.521 6.792-50.104 84.998-11.522-6.791zm53.498 28.054c-.826 1.4-2.707 1.887-4.107 1.061l-30.116-17.754L87.34 26.563l30.113 17.753c1.402.826 1.887 2.707 1.062 4.107l-18.493 31.372h-8.783L71.323 94.222a7.155 7.155 0 0 0-1.23.891l-.031.022.002.003a7.142 7.142 0 0 0-2.358 5.304 7.167 7.167 0 0 0 7.167 7.167 7.121 7.121 0 0 0 4.149-1.331l.002.003.071-.058c.182-.133.356-.273.524-.423l9.66-7.784-17.823 30.236z"/></g><path fill="#F0C42E" d="M49.219 5.943L2.161 85.772c-3.351 5.685-1.442 13.08 4.244 16.432l49.39 29.113c5.686 3.352 13.081 1.441 16.432-4.242l47.057-79.829c3.354-5.686 1.443-13.081-4.242-16.432L65.65 1.7C59.965-1.652 52.571.258 49.219 5.943zm-39.305 84.4l47.059-79.829c.826-1.401 2.707-1.888 4.107-1.062l11.521 6.792-50.105 84.998-11.522-6.791c-1.4-.826-1.886-2.708-1.06-4.108zm101.617-47.667l-47.059 79.829c-.826 1.4-2.707 1.887-4.107 1.061l-30.116-17.754 50.106-84.996 30.113 17.753c1.403.825 1.887 2.706 1.063 4.107z"/><g fill="#3A3A3A"><circle cx="135.25" cy="63.083" r="14.75"/><path d="M81.875 133.75l-7.074 17.875-22.825 14.917a7.16 7.16 0 0 0-3.634 6.23 7.167 7.167 0 0 0 7.167 7.167 7.121 7.121 0 0 0 4.121-1.31c3.761-2.371 22.351-14.084 25.495-15.88 3.5-2 4.125-5.125 4.125-5.125l4.875-16-5.75-2.625c-5.75-2.625-6.5-5.249-6.5-5.249zM132.083 135.668s-1.158-3.834-4.579-5.167-18.087-7.75-18.087-7.75l15.416-25.584s3.834-9-.333-13.417S110.75 74 110.75 74H84L64.085 88.427a7.208 7.208 0 0 0-1.23.891l-.031.022.002.003a7.14 7.14 0 0 0-2.358 5.303 7.167 7.167 0 0 0 7.167 7.167 7.121 7.121 0 0 0 4.149-1.331l.002.003.071-.058c.182-.133.357-.273.525-.423l14.743-11.881H103l-14.75 26.209s-5.134 9.214-.334 14.25c4.209 4.416 12.667 6.916 12.667 6.916l17.25 6.501 5.101 31.291.009-.001c.549 3.413 3.499 6.023 7.067 6.023a7.166 7.166 0 0 0 7.166-7.167c0-.189-.014-.375-.028-.56l.028-.004-5.093-35.913z"/></g></svg>
